X:1
T:Mozart K41 Andante
T:Concerto No. 4 K41  -  II
T:Pianoforte
T:W.A. Mozart (1756 - 1791)
%%score { ( 1 4 ) | ( 2 3 ) }
L:1/8
Q:1/4=40
M:2/4
K:Bb
V:1 treble nm="Piano" snm="Pno."
V:4 treble 
V:2 bass 
V:3 bass 
V:1
"^Andante" z2 z{a} (g/4^f/4g/4a/4 | g/d/) Pd2{a} (g/4^f/4g/4a/4 | g/e/) Pe2 (c'/4=b/4c'/4d'/4 | %3
 c'/^f<)^f(c'/b/4a/4g/4^f/4) | (Tg3/4^f/8g/8 d2) (3(d/B/G/) | (PG/^F/) ^F2 (3(d/A/^F/) | %6
 (PA/G/) G2 (3(d/B/G/) | (3(^F/A/d/(3^f/a/d'/) (3(G/B/d/(3g/b/d'/) | %8
 (3(^F/A/d/(3^f/a/d'/) (3(G/B/d/(3g/b/d'/) | (3(^F/A/d/(3^f/a/d'/ (3d/a/c'/(3d/g/b/) | %10
 (Tb3/4a/8b/8 a2) z/ A/ | (3(d/f/e/(3d/f/e/ d>f) | (3(=e/g/f/(3=e/g/f/ P=e2) | %13
 (3(=e/g/f/(3=e/^c'/d'/ (3=e'/d'/^c'/(3b/a/g/) | (Pg/f/) f2 z | %15
 (3(d'/a/g/(3f/=e/d/) (3(d'/a/g/(3f/=e/d/) | (3(d'/a/b/) (b2 a/g/) | %17
 (g/<f/)(a/<d/) (f/<=e/)(d/<^c/) | d (3z/ (A/a/) (3z/ (A/g/) (3z/ (A/=e/) | %19
 (3z/ (A/f/) (3z/ (A/f/) (3z/ (G/=e/) (3z/ (=E/^c/) | %20
 (3z/ (F/d/) (3z/ (A/a/) (3z/ (G/g/) (3z/ (A/=e/) | %21
 (3z/ (A/f/) (3z/ (A/f/) (3z/ (G/=e/) (3z/ (=E/^c/) | (3d/d'/a/(3d/d'/a/ (3d/d'/a/(3d/d'/a/ | %23
 (a/b/) (b2 a/g/) | (g/<f/)(a/<d/) (f/<=e/)(d/<^c/) | (3(d/d'/a/(3d/d'/a/ (3d/d'/a/(3d/d'/a/) | %26
 (a/b/) (b2 a/g/) | (g/<f/)(a/<d/) (f/<=e/)(d/<^c/) | (^cd)!f! [^cegb]2 | [fa]b/g/ f/=e/d/^c/ | %30
 d2 z2 | z2 z f | (Pb3/4a/8g/8f) z/ (f/g/d/) | (d/e/) e3 | (3(F/A/G/(3F/c/B/ (3A/e/d/(3c/g/e/) | %35
 (Pe/d/)d- d/fc/- | c/=B_ag^f/ | (^f/g/) g2 (c- | c/d/)(_a/g/4f/4 ed | (3e/d/c/)c- c/gd/ | %40
 d/^cba^g/ | (^g/a/) a2 (d- | d/=e/){c'}(b/a/4=g/4 f=e) | (3(f/=e/d/)d- d/>^f/(T^f3/4=e/8^f/8 | %44
 g/>d/)d z3/4 g/<(Tg/^f/8g/8 | a/>d/)d z3/4 a/<(Ta/g/8a/8 | %46
 (3b/^f/g/)(3(g/d/e/) (3(e/=B/c/)(3(c/E/A/) | (TG3/4^F/8G/8^F) z{a} (g/4^f/4g/4a/4 | %48
 g/d/) d2{a} (g/4^f/4g/4a/4 | g/e/) (e2 d/c/) | (c/<B/)(d/<G/) (B/<A/)(G/<^F/) | %51
 G (3z/ (D/d/) (3z/ (D/c/) (3z/ (D/A/) | (3z/ (D/B/) (3z/ (D/B/) (3z/ (C/A/) (3z/ (A,/^F/) | %53
 (3z/ (B,/G/) (3z/ (D/d/) (3z/ (D/c/) (3z/ (D/A/) | %54
 (3z/ (D/B/) (3z/ (D/B/) (3z/ (C/A/) (3z/ (A,/^F/) | (3(G/g/d/(3G/g/d/ (3G/g/d/(3G/g/d/) | %56
 (d/e/) (e2 d/c/) | (c/<B/)(d/<G/) (B/<A/)(G/<^F/) | (3(G/g/d/(3G/g/d/ (3G/g/d/(3G/g/d/) | %59
 (d/e/) (e2 d/c/) | (c/<B/)(d/<G/) (B/<A/)(G/<^F/) | (^FG) z2 |] %62
V:2
 z4 | z (B, DB,) | z (C EC) | z (A, CA,) | z (B, DB,) | z (D, A,C) | z (D, G,B,) | D,D D,D | %8
 D,D D,D | D,D ^F,G, | D,D D, z | z [F,A,D] [F,A,D][F,A,D] | z [G,B,D] [G,B,D][G,B,D] | %13
 z [A,^C] [A,^C][A,^C] | z [B,D] [B,D][B,D] | [F,A,D][F,A,D] [F,A,D][F,A,D] | %16
 z [G,B,D] [G,B,D][G,B,D] | A,F, G,A, | D,(F =E^C) | D.A .G.=E | .F(F =E^C) | D(.A .G.=E) | %22
 z A, (DA,) | z B, (=EB,) | A,F, G,A, | z .A, DA, | z .B, (=EB,) | A,F, G,A, | D,D,, G,2 | %29
 F,G, A,A,, | D,2 z2 | z4 |[K:treble] z [B,DF] [B,DF][B,DF] | z [B,CG] [B,CG][B,CG] | %34
 z [A,C] [A,F][A,F] | z B, (B,_A,) | F(F ED) | z E3 | F(D C=B,) | z G3 | G(G F=E) | %41
 z [F,F] [B,F-]2 | F(=E D^C) | z (D Ac) | z (B AG) | z (^F =ED) | G2 z[K:bass] [C,A,] | %47
 (B,A,) D,, z | z (B, DB,) | z C ^F,2 | G,B,, C,D, | G,,(B, A,^F, | G,).D .C.A, | .B,(B, A,^F, | %54
 G,).D .C.A, | z .D, (G,B,) | z C ^F,2 | G,B,, C,D, | z .D, (G,B,) | z C ^F,2 | G,B,, C,D, | %61
 G,G,, z2 |] %62
V:3
 x4 | G,4 | G,4 | G,4 | G,4 | x4 | x4 | x4 | x4 | x4 | x4 | x4 | x4 | x4 | x4 | x4 | x4 | x4 | %18
 z A,3 | A,4 | A,4 | A,4 | F,4 | G,4 | x4 | F,4 | G,4 | x4 | x4 | x4 | x4 | x4 |[K:treble] x4 | %33
 x4 | x4 | z F3 | G,4 | z E, _A,2 | F,2 G,2 | z C2 _B, | A,4 | x4 | G,2 A,2 | x4 | D4- | D4 | %46
 x3[K:bass] x | D,4 | G,4 | x4 | x4 | z D,3 | D,4 | D,4 | D,4 | B,,4 | x4 | x4 | B,,4 | x4 | x4 | %61
 x4 |] %62
V:4
 x4 | x4 | x4 | x4 | x4 | x4 | x4 | x4 | x4 | x4 | x4 | x4 | x4 | x4 | x4 | x4 | x4 | x4 | x4 | %19
 x4 | x4 | x4 | x4 | x4 | x4 | x4 | x4 | x4 | x4 | d>B A/G/F/=E/ | F2 z2 | x4 | x4 | x4 | x4 | x4 | %36
 x4 | x4 | x4 | x4 | x4 | x4 | x4 | x4 | x4 | x4 | x4 | x4 | x4 | x4 | x4 | x4 | x4 | x4 | x4 | %55
 x4 | x4 | x4 | x4 | x4 | x4 | x4 |] %62

